newicons/catfishing.svg

<?xml version="1.0" encoding="UTF-8" standalone="no"?>
<svg
   viewBox="0 0 48 48"
   version="1.1"
   id="svg1"
   sodipodi:docname="catfishing.svg"
   inkscape:version="1.2.2 (b0a8486541, 2022-12-01)"
   xml:space="preserve"
   xmlns:inkscape="http://www.inkscape.org/namespaces/inkscape"
   xmlns:sodipodi="http://sodipodi.sourceforge.net/DTD/sodipodi-0.dtd"
   xmlns="http://www.w3.org/2000/svg"
   xmlns:svg="http://www.w3.org/2000/svg"><sodipodi:namedview
     id="namedview1"
     pagecolor="#505050"
     bordercolor="#eeeeee"
     borderopacity="1"
     inkscape:showpageshadow="0"
     inkscape:pageopacity="0"
     inkscape:pagecheckerboard="0"
     inkscape:deskcolor="#505050"
     inkscape:zoom="6.2976698"
     inkscape:cx="-33.822034"
     inkscape:cy="33.504456"
     inkscape:window-width="1918"
     inkscape:window-height="1053"
     inkscape:window-x="0"
     inkscape:window-y="0"
     inkscape:window-maximized="1"
     inkscape:current-layer="svg1"
     showgrid="false" /><defs
     id="defs1"><style
       id="style1">.a { fill:none;stroke:#fff;stroke-linecap:round;stroke-linejoin:round; }
</style></defs><path
     style="fill:none;stroke:#ffffff;stroke-width:1;stroke-linecap:round;stroke-linejoin:round;stroke-dashoffset:3.6;stroke-opacity:1"
     d="M 5.6853907,12.599522 C 8.581343,-2.0215329 23.177642,9.5669777 30.223525,15.281381 c 0.644876,-0.68927 0.826688,-1.498659 1.835862,-1.658417 1.920689,-0.304057 0.950044,2.592715 0.887334,4.466357 1.687502,1.953623 3.225345,4.307694 4.66991,6.911361 1.354373,-1.967684 5.635966,-4.404232 4.499944,0.207244 -0.480973,1.952426 -1.046414,3.278148 -2.474855,4.053152 1.63779,2.929493 2.173219,6.008756 0.965402,7.30972 0.498585,4.739662 -3.452858,8.534697 -6.512139,3.665765 C 31.119436,38.398737 30.2359,36.193647 29.07903,33.383432 26.479577,32.868594 23.365875,31.955799 23.975428,30.073185 24.255784,29.2073 25.831809,28.991861 27.207669,28.680116 26.473502,27.185741 25.720289,24.878973 25.760074,23.131681 21.135514,21.762555 20.333587,19.518298 24.567882,19.20431 20.576016,10.132896 14.977549,10.644597 11.078289,20.217714 9.1261716,18.131521 7.8549141,16.126066 9.8228999,12.465633 10.728988,10.780318 7.1968082,11.592473 5.6853907,12.599522 Z"
     id="path403"
     sodipodi:nodetypes="csccscccccsccccsc" /></svg>

<?xml version="1.0" encoding="UTF-8"?><svg id="b" xmlns="http://www.w3.org/2000/svg" viewBox="0 0 48 48"><defs><style>.d{fill:none;stroke:#fff;stroke-linecap:round;stroke-linejoin:round;}</style></defs><path id="c" class="d" d="M5.6896,12.5968c2.896-14.6211,17.4923-3.0325,24.5381,2.6819.6449-.6893.8267-1.4987,1.8359-1.6584,1.9207-.3041.95,2.5927.8873,4.4664,1.6875,1.9536,3.2253,4.3077,4.6699,6.9114,1.3544-1.9677,5.636-4.4042,4.4999.2072-.481,1.9524-1.0464,3.2781-2.4749,4.0532,1.6378,2.9295,2.1732,6.0088.9654,7.3097.4986,4.7397-3.4529,8.5347-6.5121,3.6658-2.9755-1.8378-3.8591-4.0429-5.016-6.8531-2.5995-.5148-5.7132-1.4276-5.1036-3.3102.2804-.8659,1.8564-1.0813,3.2322-1.3931-.7342-1.4944-1.4874-3.8011-1.4476-5.5484-4.6246-1.3691-5.4265-3.6134-1.1922-3.9274-3.9919-9.0714-9.5903-8.5597-13.4896,1.0134-1.9521-2.0862-3.2234-4.0916-1.2554-7.7521.9061-1.6853-2.6261-.8732-4.1375.1339Z"/></svg>
